dist/svg/cab-fill.svg

<svg xmlns="http://www.w3.org/2000/svg" viewBox="0 0 24 24"><path d="M9.805 3.28c-.391.092-.633.519-.524.924.059.218.288.453.5.511.22.062 4.218.062 4.438 0a.84.84 0 0 0 .306-.191.739.739 0 0 0-.348-1.246c-.192-.044-4.183-.043-4.372.002M7.593 5.285c-.579.074-1.092.337-1.553.795-.441.438-.558.692-1.001 2.18a62 62 0 0 1-.389 1.274c-.011.019-.175-.119-.365-.306-.395-.389-.527-.468-.785-.468-.365 0-.691.276-.73.618-.042.377-.012.429.633 1.083.329.332.597.616.597.63a.7.7 0 0 1-.12.163 2.9 2.9 0 0 0-.511.926l-.109.32v4l.109.32c.06.176.177.435.26.575.296.498.868.985 1.378 1.171l.233.085v.704c0 .388.019.772.042.854.108.39.52.618.92.51.22-.059.454-.287.513-.5.025-.087.045-.451.045-.809v-.65h10.48v.65c0 .358.02.722.045.809.059.213.293.441.513.5.4.108.812-.12.92-.51.023-.082.042-.466.042-.854v-.704l.233-.085c.51-.186 1.082-.673 1.378-1.171.083-.14.2-.399.26-.575l.109-.32v-4l-.109-.32a2.9 2.9 0 0 0-.511-.926.7.7 0 0 1-.12-.166c0-.016.244-.272.543-.569.298-.296.577-.606.62-.687a.78.78 0 0 0-.118-.846c-.184-.21-.603-.289-.857-.162-.07.035-.283.217-.473.404s-.354.325-.365.306a62 62 0 0 1-.389-1.274c-.443-1.488-.56-1.742-1.001-2.18-.479-.476-.967-.718-1.606-.798-.405-.051-8.365-.048-8.761.003m8.952 1.583c.243.13.403.278.523.482.059.101.288.785.514 1.536l.407 1.354H6.011l.374-1.25c.206-.687.403-1.325.437-1.417.132-.353.411-.628.766-.756.125-.045.908-.053 4.472-.046l4.32.009zm-8.278 6.935c.249.093.491.438.491.697s-.242.604-.491.697c-.062.024-.402.043-.767.043s-.705-.019-.767-.043c-.249-.093-.491-.438-.491-.697s.21-.572.458-.683c.149-.067 1.398-.078 1.567-.014m9 0c.249.093.491.438.491.697s-.242.604-.491.697c-.062.024-.402.043-.767.043s-.705-.019-.767-.043c-.249-.093-.491-.438-.491-.697s.21-.572.458-.683c.149-.067 1.398-.078 1.567-.014" fill-rule="evenodd"/></svg>

<svg fill="none" xmlns="http://www.w3.org/2000/svg" viewBox="0 0 24 24"><path d="M9.805 3.280 C 9.414 3.372,9.172 3.799,9.281 4.204 C 9.340 4.422,9.569 4.657,9.781 4.715 C 10.001 4.777,13.999 4.777,14.219 4.715 C 14.307 4.691,14.444 4.605,14.525 4.524 C 14.938 4.111,14.742 3.409,14.177 3.278 C 13.985 3.234,9.994 3.235,9.805 3.280 M7.593 5.285 C 7.014 5.359,6.501 5.622,6.040 6.080 C 5.599 6.518,5.482 6.772,5.039 8.260 C 4.835 8.942,4.660 9.515,4.650 9.534 C 4.639 9.553,4.475 9.415,4.285 9.228 C 3.890 8.839,3.758 8.760,3.500 8.760 C 3.135 8.760,2.809 9.036,2.770 9.378 C 2.728 9.755,2.758 9.807,3.403 10.461 C 3.732 10.793,4.000 11.077,4.000 11.091 C 4.000 11.106,3.946 11.179,3.880 11.254 C 3.684 11.477,3.484 11.838,3.369 12.180 L 3.260 12.500 3.260 14.500 L 3.260 16.500 3.369 16.820 C 3.429 16.996,3.546 17.255,3.629 17.395 C 3.925 17.893,4.497 18.380,5.007 18.566 L 5.240 18.651 5.240 19.355 C 5.240 19.743,5.259 20.127,5.282 20.209 C 5.390 20.599,5.802 20.827,6.202 20.719 C 6.422 20.660,6.656 20.432,6.715 20.219 C 6.740 20.132,6.760 19.768,6.760 19.410 L 6.760 18.760 12.000 18.760 L 17.240 18.760 17.240 19.410 C 17.240 19.768,17.260 20.132,17.285 20.219 C 17.344 20.432,17.578 20.660,17.798 20.719 C 18.198 20.827,18.610 20.599,18.718 20.209 C 18.741 20.127,18.760 19.743,18.760 19.355 L 18.760 18.651 18.993 18.566 C 19.503 18.380,20.075 17.893,20.371 17.395 C 20.454 17.255,20.571 16.996,20.631 16.820 L 20.740 16.500 20.740 14.500 L 20.740 12.500 20.631 12.180 C 20.516 11.838,20.316 11.477,20.120 11.254 C 20.054 11.179,20.000 11.104,20.000 11.088 C 20.000 11.072,20.244 10.816,20.543 10.519 C 20.841 10.223,21.120 9.913,21.163 9.832 C 21.298 9.571,21.249 9.218,21.045 8.986 C 20.861 8.776,20.442 8.697,20.188 8.824 C 20.118 8.859,19.905 9.041,19.715 9.228 C 19.525 9.415,19.361 9.553,19.350 9.534 C 19.340 9.515,19.165 8.942,18.961 8.260 C 18.518 6.772,18.401 6.518,17.960 6.080 C 17.481 5.604,16.993 5.362,16.354 5.282 C 15.949 5.231,7.989 5.234,7.593 5.285 M16.545 6.868 C 16.788 6.998,16.948 7.146,17.068 7.350 C 17.127 7.451,17.356 8.135,17.582 8.886 L 17.989 10.240 12.000 10.240 L 6.011 10.240 6.385 8.990 C 6.591 8.303,6.788 7.665,6.822 7.573 C 6.954 7.220,7.233 6.945,7.588 6.817 C 7.713 6.772,8.496 6.764,12.060 6.771 L 16.380 6.780 16.545 6.868 M8.267 13.803 C 8.516 13.896,8.758 14.241,8.758 14.500 C 8.758 14.759,8.516 15.104,8.267 15.197 C 8.205 15.221,7.865 15.240,7.500 15.240 C 7.135 15.240,6.795 15.221,6.733 15.197 C 6.484 15.104,6.242 14.759,6.242 14.500 C 6.242 14.242,6.452 13.928,6.700 13.817 C 6.849 13.750,8.098 13.739,8.267 13.803 M17.267 13.803 C 17.516 13.896,17.758 14.241,17.758 14.500 C 17.758 14.759,17.516 15.104,17.267 15.197 C 17.205 15.221,16.865 15.240,16.500 15.240 C 16.135 15.240,15.795 15.221,15.733 15.197 C 15.484 15.104,15.242 14.759,15.242 14.500 C 15.242 14.242,15.452 13.928,15.700 13.817 C 15.849 13.750,17.098 13.739,17.267 13.803 " stroke="none" fill-rule="evenodd" fill="currentColor"/></svg>
